src/assets/img/newgent-icon.svg

<svg width="200" height="200" viewBox="0 0 200 200" fill="none" xmlns="http://www.w3.org/2000/svg">
<path d="M160 40V0H120V40H79.9999V79.9999H120V120H160V79.9999H200V40H160Z" fill="white"/>
<path d="M79.9999 120L79.9999 79.9999L40 80V120H0V160H40V200H79.9999V160H120L120 120L79.9999 120Z" fill="white"/>
</svg>

<svg xmlns="http://www.w3.org/2000/svg" width="200" height="200" fill="none"><path fill="#fff" d="M160 40V0h-40v40H80v40h40v40h40V80h40V40h-40Z"/><path fill="#fff" d="M80 120V80H40v40H0v40h40v40h40v-40h40v-40H80Z"/></svg>
